packages/icon/src/svg/signout.icon.svg

<svg width="24" height="24" viewBox="0 0 24 24" fill="none" xmlns="http://www.w3.org/2000/svg">
<path fill-rule="evenodd" clip-rule="evenodd" d="M12 5V10H14V4C14 3.44772 13.5522 3 13 3H3C2.44775 3 2 3.44772 2 4V20C2 20.5523 2.44775 21 3 21H13C13.5522 21 14 20.5523 14 20V14H12V19H4V5H12ZM17.0314 7.65755L16.3459 8.35709C16.1555 8.55148 16.1555 8.86252 16.3459 9.05692L18.2496 11H10.3378C10.0616 11 9.83777 11.2239 9.83777 11.5V12.5C9.83777 12.7761 10.0616 13 10.3378 13H18.2496L16.3459 14.9431C16.1555 15.1375 16.1555 15.4485 16.3459 15.6429L17.0386 16.3497C17.2358 16.5429 17.5524 16.5397 17.7456 16.3425L21.6572 12.3499C21.8477 12.1555 21.8477 11.8445 21.6572 11.6501L17.7384 7.6503C17.5411 7.45705 17.2246 7.4603 17.0314 7.65755Z" fill="white"/>
</svg>

<svg aria-label="signout icon" viewBox="0 0 24 24"><path fill-rule="evenodd" clip-rule="evenodd" d="M12 5v5h2V4a1 1 0 00-1-1H3a1 1 0 00-1 1v16a1 1 0 001 1h10a1 1 0 001-1v-6h-2v5H4V5h8zm5.031 2.658l-.685.7a.5.5 0 000 .699L18.25 11h-7.912a.5.5 0 00-.5.5v1a.5.5 0 00.5.5h7.912l-1.904 1.943a.5.5 0 000 .7l.693.707a.5.5 0 00.707-.008l3.911-3.992a.5.5 0 000-.7l-3.919-4a.5.5 0 00-.707.008z"/></svg>
